!!!SOCIAL_FUNCTION:	songs in honor of an individual
!!!PDT:	1918

Specific Region: Dakotas, Minnesota, Montana, Nebraska
!!!REG: Dakotas and Montana
!!!LING_GROUP: Siouan
!!!LANG: Tone
!!!OTL@ENG: Two White Buffalo, Take Courage
!!!ONM: No. 225
**kern
*Imale
*clefF4
*k[f#]
*M2/4
*MM66
4g
8g
8e
=1||
*M3/4
8g
8e
12e
12e
12e
4e
=2
8e
8e
4e
8g
8e
=3||
*M2/4
16e
8.d
4d
=4
8d
8d
4B
=5||
*M3/4
32d
16.B
8B
8B
[8B
4B]
=6||
*M2/4
8B
8B
8A#
8B
=7
12A#
12A#
12G
16G
16G
8G
=8||
*M3/4
16B
8.d
16d
8.d
4d
=9
16.g
32g
8e
16d
8.d
4d
=10||
*M2/4
16B
8.d
16e
8.d
=11
4d
8B
8B
=12||
*M3/4
16d
8.B
8B
16A#
16A#
8A#
8A#
=13||
*M2/4
16G
8.B
16B
8.B
=14
8A#
8B
12B
12A#
12A#
=15
4G
8.G
16G
=16
2G
=17
2G
==
*-
!!!CNT: Native American -- Sioux
!!!MRD: 1911/07//-1914///
!!!OCL: Frances Densmore
!!!YOR1: Teton Sioux Music, Bulletin 61,
!!!YOR2: Bureau of American Ethnology, Smithsonian Institution
!!!PPR: Government Printing Office
!!!PPP: Washington, D.C.
!!!PDT: 1918///
!!!ENC: Craig Stuart Sapp
!!!END: 2002/03/25/
!!!EEV: 2002/03/31/
!!!AGN: Song in Honor of an Individual
!!!MPN@@SIO: Haka'la
!!!MPN@ENG: Youngest Child
!!!TXO: Teton Sioux
!!!MLC: Standing Rock Reservation, South Dakota, United States of America
!!!ARL: 45.9/-100.7#
!!!catalog: Catalogue No. 671
!!!PPG: 503
!!!EFL: 230/245
!!!VTS: 3082014341
